public/img/icons/mobile-menu.svg

<svg xmlns="http://www.w3.org/2000/svg" width="34" height="34" viewBox="0 0 24 24" fill="#f1bc9c"  xmlns:v="https://vecta.io/nano"><path d="M3 8V6h18v2H3zm0 5h18v-2H3v2zm0 5h18v-2H3v2z"/></svg>

<svg width="34" height="34" class="mobile-menu" viewBox="0 0 24 24" fill="none" xmlns="http://www.w3.org/2000/svg">
               <path d="M3 8V6H21V8H3Z" fill="#F1BC9C" />
               <path d="M3 13H21V11H3V13Z" fill="#F1BC9C" />
               <path d="M3 18H21V16H3V18Z" fill="#F1BC9C" />
               </svg>
